docs/app/assets/images/empty-state-sm.svg

<svg fill="none" height="142" viewBox="0 0 146 142" width="146" xmlns="http://www.w3.org/2000/svg" xmlns:xlink="http://www.w3.org/1999/xlink"><clipPath id="a"><path d="m0 0h145.972v142h-145.972z"/></clipPath><g clip-path="url(#a)"><path d="m0 72.2381c0-39.7028 40.3099-72.2381 79.9515-72.2381 39.6415 0 63.6295 32.5667 63.6295 72.2381 0 39.6709-39.945 69.7619-79.5968 69.7619-39.652 0-63.9842-30.091-63.9842-69.7619z" fill="#f5f3f3"/><g stroke="#000" stroke-linecap="round" stroke-linejoin="round" stroke-width=".5"><path d="m55.0241 48.2806-6.5477 6.7495c-1.4098 1.4523-3.7491 4.8584-3.0076 6.6868 0 0 6.861 12.172 8.1664 15.1497s5.8376 1.5672 5.8376 1.5672 2.3601-2.9777 5.2215-6.0494-7.049-11.0646-7.049-11.0646l5.9734-5.433z" fill="#f49c60"/><path d="m145.711 109.506s-12.782-8.358-25.658-18.1479c-4.752-3.5941-9.754-8.8391-11.154-11.4929-2.506-4.7434-11.1945-26.6844-14.484-30.2263-1.2427-1.3478-5.7332-2.2777-5.7332-2.2777-1.5078-1.1198-3.1768-2.0041-4.95-2.6225-2.6838-.9716-6.1718.4911-8.8661.5224 0 0-3.1329-1.3269-4.5949-1.8284-3.3731-1.097-6.5268.7941-10.8816 3.5419-4.8142-1.703-11.0486-6.1225-18.484-8.4838-2.2766-.7209-13.5759-5.4644-18.3275-7.0525-3.0284-1.0448-2.8927-.2821-6.7044-2.1523-.9085-.4492-1.6709-.8672-1.911.1045-.6997 2.706.2715 7.9928 6.2658 10.6152 3.0389 1.327 12.5942 6.1122 17.3562 7.7734 3.8535 2.3404 9.8582 7.4077 14.4635 11.7855 1.1486 1.0869 2.0374 2.419 2.6003 3.8971 1.5455 3.6219 2.5992 7.4345 3.1329 11.3362.4177 3.5419-.2819 4.8688-3.5506 5.2241-1.6709.188-6.4538-1.4001-7.8009-2.0897-2.0155-1.0448-13.7639-5.6524-24.7499-1.703-3.5297 1.2747-1.2114 6.2688 2.0886 7.1778 3.0285.8568 12.3436 2.4971 16.4059 5.2972 5.5557 3.824 10.1089 8.0033 11.6022 9.0794 3.2478 2.3403 25.7211 8.3583 30.2847 10.4483 8.4066 3.855 40.101 29.725 40.101 29.725z" fill="#efb484"/><path d="m59.3893 46.9642 8.4066 4.1688"/><path d="m74.8658 45.2507 4.6576 1.9851"/><path d="m20.8651 79.2383s5.6079.4911 6.767.7836c1.1592.2926.4073 3.7927-.4699 4.1793 0 0-7.2057-1.3165-7.9785-1.4105-.7727-.0941-1.2009-3.8345 1.6814-3.5524z" fill="#efb484"/><path d="m38.2944 62.0199-2.0886-28.6592-3.5402-1.4209-8.8556 6.0494c-.4971.3456-.9108.7979-1.2107 1.324-.2999.526-.4786 1.1125-.5228 1.7164.0501.2403.1617.4635.3237.6478.5693.4532.9431 1.1077 1.0443 1.8284.1525 1.1262.0038 2.2726-.431 3.3225s-1.1401 1.9656-2.044 2.6538c-1.744 1.1911-3.488.4389-3.8848-1.6717-.1566-.8463 3.1329-1.7239 3.3522-2.6224 0 0-2.569-1.0448-2.9658-1.2851-.3812-.2328-.8228-.3471-1.269-.3285s-.8768.1693-1.2373.433l-8.90788 6.1121 2.08859 10.7406c.09193.5995.06354 1.2113-.08349 1.7997-.14702.5884-.40975 1.1416-.77283 1.6273-.20513.134-.44427.2065-.68924.2089-.71235-.0926-1.43253.0988-2.00505.5329-.89994.6951-1.60004 1.616-2.02922 2.6693s-.57217 2.2014-.41444 3.3279c.05571.4578.23206.8926.51098 1.2597.27892.3672.65039.6536 1.07635.8299.66836.2299 3.57151 1.4314 3.57151 1.4314.68923-.4702-.00001-3.0717.4386-3.8867.15817-.2465.35573-.4653.58481-.6478.67879-.1462 1.53512.0001 1.82751 1.5568l2.0051 10.7407 3.5297 1.4313 21.2828-18.3886c.4883-.3946.8662-.9089 1.0968-1.493s.3061-1.218.219-1.8399z" fill="#ff8661"/><path d="m28.3736 56.7958 2.7465-11.3571s-8.887-3.8449-8.7616-3.7404c.5692.4532.943 1.1076 1.0443 1.8284.1533 1.1191.0092 2.2588-.418 3.3043-.4272 1.0456-1.1223 1.96-2.0153 2.6511-1.7439 1.1911-3.1328-.7522-2.8509 1.3896.1044 1.0344 10.4743 7.0838 10.255 5.9241z" fill="#000"/><path d="m14.9544 53.5151-8.89745-3.3956 2.08859 10.7406c.09193.5995.06354 1.2113-.08349 1.7997-.14702.5884-.40975 1.1416-.77283 1.6273-.20718.1295-.44504.2016-.68924.209-.35283-.0488-.71182-.0268-1.05606.0647s-.66684.2506-.94899.4681c-.9016.6937-1.60291 1.6144-2.03226 2.6681-.42934 1.0537-.57132 2.2025-.4114 3.3291.05466.4582.2306.8934.50966 1.2608.27905.3673.65109.6535 1.07767.8288.66835.2299 3.57151 1.4314 3.57151 1.4314.68923-.4701 2.55853-4.5344 2.85089-2.9777l2.0051 10.7407 3.5297 1.4314 21.2828-18.3887c.919-.6373-21.2723-12.3288-22.0242-11.8377z" fill="#ce6e57"/><path d="m41.8241 63.4513-5.6183-30.0801-8.8765 6.0599c-.4965.3477-.9089.8022-1.2071 1.3301-.2981.5279-.4744 1.1158-.516 1.7207.0449.239.1573.4602.3237.6374.5667.4598.9396 1.1164 1.0443 1.8388.1591 1.1251.0167 2.2721-.4127 3.324-.4293 1.0519-1.1302 1.9708-2.0309 2.6628-1.744 1.1911-3.4775.4492-3.8744-1.6717-.1498-.8939-.0854-1.8106.188-2.6747.0441-.3014.0441-.6076 0-.909 0-.2821-.5222-.5433-.8354-.606-.5387-.0463-1.0769.0939-1.5247.3971l-8.86611 6.0912 2.01551 10.7406c.1032.5791.083 1.1734-.0591 1.7442-.1422.5707-.4032 1.105-.7659 1.5679-.0921.099-.2036.178-.3276.232-.124.0539-.2578.0816-.393.0814-.71373-.0896-1.43405.1055-2.00503.5433-.90074.692-1.60162 1.6109-2.03097 2.6628s-.57177 2.199-.41269 3.324c.39683 2.0896 2.0886 2.8627 3.87435 1.6717.71774-.5191 1.30424-1.1989 1.71264-1.9852.1554-.2486.3534-.4679.5848-.6478.6788-.1567 1.5351 0 1.8275 1.5464l2.0051 10.751 24.8125-16.9677c.5087-.3912.9037-.9113 1.1442-1.5064s.3178-1.2437.2238-1.8787z" fill="#ff8661"/></g><path d="m26.0657 32.6085 16.1344 6.3106-.4699 10.8974-20.4892-9.3406" fill="#efb484"/><path d="m25.084 32.3995 17.962 6.8226" stroke="#000" stroke-linecap="round" stroke-linejoin="round" stroke-width=".5"/><path d="m20.1758 39.9848 19.6642 9.3197" stroke="#000" stroke-linecap="round" stroke-linejoin="round" stroke-width=".5"/><path d="m17.9829 29.5472-2.6421-.7627s-2.4332.1045-1.2532 1.7866c1.1801 1.6821 4.1146 2.7165 5.7019 2.915s2.8092-2.1418 2.8092-2.1418z" fill="#efb484" stroke="#000" stroke-linecap="round" stroke-linejoin="round" stroke-width=".5"/></g></svg>

<svg width="146" height="142" viewBox="0 0 146 142" fill="none" xmlns="http://www.w3.org/2000/svg">
<g clip-path="url(#clip0_2522_25985)">
<path d="M0 72.2381C0 32.5353 40.3099 0 79.9515 0C119.593 0 143.581 32.5667 143.581 72.2381C143.581 111.909 103.636 142 63.9842 142C24.3322 142 0 111.909 0 72.2381Z" fill="#F5F3F3"/>
<path d="M55.0241 48.2806L48.4764 55.0301C47.0666 56.4824 44.7273 59.8885 45.4688 61.7169C45.4688 61.7169 52.3298 73.8889 53.6352 76.8666C54.9406 79.8443 59.4728 78.4338 59.4728 78.4338C59.4728 78.4338 61.8329 75.4561 64.6943 72.3844C67.5557 69.3127 57.6453 61.3198 57.6453 61.3198L63.6187 55.8868L55.0241 48.2806Z" fill="#F49C60" stroke="black" stroke-width="0.5" stroke-linecap="round" stroke-linejoin="round"/>
<path d="M145.711 109.506C145.711 109.506 132.929 101.148 120.053 91.3581C115.301 87.764 110.299 82.519 108.899 79.8652C106.393 75.1218 97.7045 53.1808 94.415 49.6389C93.1723 48.2911 88.6818 47.3612 88.6818 47.3612C87.174 46.2414 85.505 45.3571 83.7318 44.7387C81.048 43.7671 77.56 45.2298 74.8657 45.2611C74.8657 45.2611 71.7328 43.9342 70.2708 43.4327C66.8977 42.3357 63.744 44.2268 59.3892 46.9746C54.575 45.2716 48.3406 40.8521 40.9052 38.4908C38.6286 37.7699 27.3293 33.0264 22.5777 31.4383C19.5493 30.3935 19.685 31.1562 15.8733 29.286C14.9648 28.8368 14.2024 28.4188 13.9623 29.3905C13.2626 32.0965 14.2338 37.3833 20.2281 40.0057C23.267 41.3327 32.8223 46.1179 37.5843 47.7791C41.4378 50.1195 47.4425 55.1868 52.0478 59.5646C53.1964 60.6515 54.0852 61.9836 54.6481 63.4617C56.1936 67.0836 57.2473 70.8962 57.781 74.7979C58.1987 78.3398 57.4991 79.6667 54.2304 80.022C52.5595 80.21 47.7766 78.6219 46.4295 77.9323C44.414 76.8875 32.6656 72.2799 21.6796 76.2293C18.1499 77.504 20.4682 82.4981 23.7682 83.4071C26.7967 84.2639 36.1118 85.9042 40.1741 88.7043C45.7298 92.5283 50.283 96.7076 51.7763 97.7837C55.0241 100.124 77.4974 106.142 82.061 108.232C90.4676 112.087 122.162 137.957 122.162 137.957L145.711 109.506Z" fill="#EFB484" stroke="black" stroke-width="0.5" stroke-linecap="round" stroke-linejoin="round"/>
<path d="M59.3893 46.9642L67.7959 51.133" stroke="black" stroke-width="0.5" stroke-linecap="round" stroke-linejoin="round"/>
<path d="M74.8658 45.2507L79.5234 47.2358" stroke="black" stroke-width="0.5" stroke-linecap="round" stroke-linejoin="round"/>
<path d="M20.8651 79.2383C20.8651 79.2383 26.473 79.7294 27.6321 80.0219C28.7913 80.3145 28.0394 83.8146 27.1622 84.2012C27.1622 84.2012 19.9565 82.8847 19.1837 82.7907C18.411 82.6966 17.9828 78.9562 20.8651 79.2383Z" fill="#EFB484" stroke="black" stroke-width="0.5" stroke-linecap="round" stroke-linejoin="round"/>
<path d="M38.2944 62.0199L36.2058 33.3607L32.6656 31.9398L23.81 37.9892C23.3129 38.3348 22.8992 38.7871 22.5993 39.3132C22.2994 39.8392 22.1207 40.4257 22.0765 41.0296C22.1266 41.2699 22.2382 41.4931 22.4002 41.6774C22.9695 42.1306 23.3433 42.7851 23.4445 43.5058C23.597 44.632 23.4483 45.7784 23.0135 46.8283C22.5787 47.8782 21.8734 48.7939 20.9695 49.4821C19.2255 50.6732 17.4815 49.921 17.0847 47.8104C16.9281 46.9641 20.2176 46.0865 20.4369 45.188C20.4369 45.188 17.8679 44.1432 17.4711 43.9029C17.0899 43.6701 16.6483 43.5558 16.2021 43.5744C15.7559 43.593 15.3253 43.7437 14.9648 44.0074L6.05692 50.1195L8.14551 60.8601C8.23744 61.4596 8.20905 62.0714 8.06202 62.6598C7.915 63.2482 7.65227 63.8014 7.28919 64.2871C7.08406 64.4211 6.84492 64.4936 6.59995 64.496C5.8876 64.4034 5.16742 64.5948 4.5949 65.0289C3.69496 65.724 2.99486 66.6449 2.56568 67.6982C2.1365 68.7515 1.99351 69.8996 2.15124 71.0261C2.20695 71.4839 2.3833 71.9187 2.66222 72.2858C2.94114 72.653 3.31261 72.9394 3.73857 73.1157C4.40693 73.3456 7.31008 74.5471 7.31008 74.5471C7.99931 74.0769 7.31007 71.4754 7.74868 70.6604C7.90685 70.4139 8.10441 70.1951 8.33349 70.0126C9.01228 69.8664 9.86861 70.0127 10.161 71.5694L12.1661 82.3101L15.6958 83.7414L36.9786 65.3528C37.4669 64.9582 37.8448 64.4439 38.0754 63.8598C38.306 63.2757 38.3815 62.6418 38.2944 62.0199Z" fill="#FF8661" stroke="black" stroke-width="0.5" stroke-linecap="round" stroke-linejoin="round"/>
<path d="M28.3736 56.7958L31.1201 45.4387C31.1201 45.4387 22.2331 41.5938 22.3585 41.6983C22.9277 42.1515 23.3015 42.8059 23.4028 43.5267C23.5561 44.6458 23.412 45.7855 22.9848 46.831C22.5576 47.8766 21.8625 48.791 20.9695 49.4821C19.2256 50.6732 17.8367 48.7299 18.1186 50.8717C18.223 51.9061 28.5929 57.9555 28.3736 56.7958Z" fill="black" stroke="black" stroke-width="0.5" stroke-linecap="round" stroke-linejoin="round"/>
<path d="M14.9544 53.5151L6.05695 50.1195L8.14554 60.8601C8.23747 61.4596 8.20908 62.0714 8.06205 62.6598C7.91503 63.2482 7.6523 63.8014 7.28922 64.2871C7.08204 64.4166 6.84418 64.4887 6.59998 64.4961C6.24715 64.4473 5.88816 64.4693 5.54392 64.5608C5.19968 64.6523 4.87708 64.8114 4.59493 65.0289C3.69333 65.7226 2.99202 66.6433 2.56267 67.697C2.13333 68.7507 1.99135 69.8995 2.15127 71.0261C2.20593 71.4843 2.38187 71.9195 2.66093 72.2869C2.93998 72.6542 3.31202 72.9404 3.7386 73.1157C4.40695 73.3456 7.31011 74.5471 7.31011 74.5471C7.99934 74.077 9.86864 70.0127 10.161 71.5694L12.1661 82.3101L15.6958 83.7415L36.9786 65.3528C37.8976 64.7155 15.7063 53.024 14.9544 53.5151Z" fill="#CE6E57" stroke="black" stroke-width="0.5" stroke-linecap="round" stroke-linejoin="round"/>
<path d="M41.8241 63.4513L36.2058 33.3712L27.3293 39.4311C26.8328 39.7788 26.4204 40.2333 26.1222 40.7612C25.8241 41.2891 25.6478 41.877 25.6062 42.4819C25.6511 42.7209 25.7635 42.9421 25.9299 43.1193C26.4966 43.5791 26.8695 44.2357 26.9742 44.9581C27.1333 46.0832 26.9909 47.2302 26.5615 48.2821C26.1322 49.334 25.4313 50.2529 24.5306 50.9449C22.7866 52.136 21.0531 51.3941 20.6562 49.2732C20.5064 48.3793 20.5708 47.4626 20.8442 46.5985C20.8883 46.2971 20.8883 45.9909 20.8442 45.6895C20.8442 45.4074 20.322 45.1462 20.0088 45.0835C19.4701 45.0372 18.9319 45.1774 18.4841 45.4806L9.61799 51.5718L11.6335 62.3124C11.7367 62.8915 11.7165 63.4858 11.5744 64.0566C11.4322 64.6273 11.1712 65.1616 10.8085 65.6245C10.7164 65.7235 10.6049 65.8025 10.4809 65.8565C10.3569 65.9104 10.2231 65.9381 10.0879 65.9379C9.37417 65.8483 8.65385 66.0434 8.08287 66.4812C7.18213 67.1732 6.48125 68.0921 6.0519 69.144C5.62255 70.1959 5.48013 71.343 5.63921 72.468C6.03604 74.5576 7.72781 75.3307 9.51356 74.1397C10.2313 73.6206 10.8178 72.9408 11.2262 72.1545C11.3816 71.9059 11.5796 71.6866 11.811 71.5067C12.4898 71.35 13.3461 71.5067 13.6385 73.0531L15.6436 83.8041L40.4561 66.8364C40.9648 66.4452 41.3598 65.9251 41.6003 65.33C41.8408 64.7349 41.9181 64.0863 41.8241 63.4513V63.4513Z" fill="#FF8661" stroke="black" stroke-width="0.5" stroke-linecap="round" stroke-linejoin="round"/>
<path d="M26.0657 32.6085L42.2001 38.9191L41.7302 49.8165L21.241 40.4759" fill="#EFB484"/>
<path d="M25.084 32.3995L43.046 39.2221" stroke="black" stroke-width="0.5" stroke-linecap="round" stroke-linejoin="round"/>
<path d="M20.1758 39.9848L39.84 49.3045" stroke="black" stroke-width="0.5" stroke-linecap="round" stroke-linejoin="round"/>
<path d="M17.9829 29.5472L15.3408 28.7845C15.3408 28.7845 12.9076 28.889 14.0876 30.5711C15.2677 32.2532 18.2022 33.2876 19.7895 33.4861C21.3768 33.6846 22.5987 31.3443 22.5987 31.3443L17.9829 29.5472Z" fill="#EFB484" stroke="black" stroke-width="0.5" stroke-linecap="round" stroke-linejoin="round"/>
</g>
<defs>
<clipPath id="clip0_2522_25985">
<rect width="145.972" height="142" fill="white"/>
</clipPath>
</defs>
</svg>
